bicons/scalable/logos/exchange-resource.svg

<?xml version="1.0" encoding="UTF-8" standalone="no"?>
<!-- Created with Inkscape (http://www.inkscape.org/) -->

<svg
   xmlns:dc="http://purl.org/dc/elements/1.1/"
   xmlns:cc="http://creativecommons.org/ns#"
   xmlns:rdf="http://www.w3.org/1999/02/22-rdf-syntax-ns#"
   xmlns:svg="http://www.w3.org/2000/svg"
   xmlns="http://www.w3.org/2000/svg"
   xmlns:xlink="http://www.w3.org/1999/xlink"
   xmlns:sodipodi="http://sodipodi.sourceforge.net/DTD/sodipodi-0.dtd"
   xmlns:inkscape="http://www.inkscape.org/namespaces/inkscape"
   width="210mm"
   height="297mm"
   viewBox="0 0 744.09448819 1052.3622047"
   id="svg2"
   version="1.1"
   inkscape:version="0.91 r13725"
   sodipodi:docname="exchange-resource.svg"
   inkscape:export-filename="C:\Users\johannes\Documents\Arbeit\RRZE\bi-con\bi-con\scalable\documents\document.png"
   inkscape:export-xdpi="4"
   inkscape:export-ydpi="4">
  <defs
     id="defs4">
    <linearGradient
       id="linearGradient2224">
      <stop
         id="stop2226"
         offset="0"
         style="stop-color:#7c7c7c;stop-opacity:1;" />
      <stop
         id="stop2228"
         offset="1"
         style="stop-color:#b8b8b8;stop-opacity:1;" />
    </linearGradient>
    <linearGradient
       id="linearGradient15218">
      <stop
         id="stop15220"
         offset="0"
         style="stop-color:#eeeeef;stop-opacity:1;" />
      <stop
         id="stop2736"
         offset="0.59928656"
         style="stop-color:#d3d7cf;stop-opacity:1;" />
      <stop
         id="stop2738"
         offset="0.82758623"
         style="stop-color:#ffffff;stop-opacity:1;" />
      <stop
         id="stop15222"
         offset="1"
         style="stop-color:#d3d7cf;stop-opacity:1;" />
    </linearGradient>
    <pattern
       y="0"
       x="0"
       height="6"
       width="6"
       patternUnits="userSpaceOnUse"
       id="EMFhbasepattern" />
    <pattern
       y="0"
       x="0"
       height="6"
       width="6"
       patternUnits="userSpaceOnUse"
       id="EMFhbasepattern-5" />
    <linearGradient
       inkscape:collect="always"
       xlink:href="#linearGradient4240"
       id="linearGradient4246"
       x1="223.80943"
       y1="586.3067"
       x2="436.18082"
       y2="379.83151"
       gradientUnits="userSpaceOnUse"
       gradientTransform="matrix(-0.69426327,0,0,0.69447709,701.23908,205.41158)" />
    <linearGradient
       inkscape:collect="always"
       id="linearGradient4240">
      <stop
         style="stop-color:#5a6578;stop-opacity:1;"
         offset="0"
         id="stop4242" />
      <stop
         style="stop-color:#9397a2;stop-opacity:1"
         offset="1"
         id="stop4244" />
    </linearGradient>
  </defs>
  <sodipodi:namedview
     id="base"
     pagecolor="#ffffff"
     bordercolor="#666666"
     borderopacity="1.0"
     inkscape:pageopacity="0.0"
     inkscape:pageshadow="2"
     inkscape:zoom="0.5"
     inkscape:cx="344.55986"
     inkscape:cy="543.98902"
     inkscape:document-units="px"
     inkscape:current-layer="layer1"
     showgrid="false"
     showguides="true"
     inkscape:guide-bbox="true"
     inkscape:window-width="1366"
     inkscape:window-height="721"
     inkscape:window-x="-4"
     inkscape:window-y="-4"
     inkscape:window-maximized="1">
    <sodipodi:guide
       position="560,730.00002"
       orientation="0,1"
       id="guide3338" />
    <sodipodi:guide
       position="560,330.00001"
       orientation="0,1"
       id="guide3340" />
    <sodipodi:guide
       position="190,475.00001"
       orientation="1,0"
       id="guide3344" />
    <sodipodi:guide
       position="590,451.00001"
       orientation="1,0"
       id="guide3346" />
    <inkscape:grid
       type="xygrid"
       id="grid3440" />
  </sodipodi:namedview>
  <metadata
     id="metadata7">
    <rdf:RDF>
      <cc:Work
         rdf:about="">
        <dc:format>image/svg+xml</dc:format>
        <dc:type
           rdf:resource="http://purl.org/dc/dcmitype/StillImage" />
        <dc:title />
      </cc:Work>
    </rdf:RDF>
  </metadata>
  <g
     inkscape:label="Ebene 1"
     inkscape:groupmode="layer"
     id="layer1">
    <rect
       style="opacity:1;fill:none;fill-opacity:1;stroke:none;stroke-width:23;stroke-linecap:butt;stroke-linejoin:round;stroke-miterlimit:4;stroke-dasharray:none;stroke-opacity:1"
       id="rect4160"
       width="400"
       height="400"
       x="190"
       y="322.36221" />
    <rect
       style="color:#000000;clip-rule:nonzero;display:inline;overflow:visible;visibility:visible;opacity:0.65100002;isolation:auto;mix-blend-mode:normal;color-interpolation:sRGB;color-interpolation-filters:linearRGB;solid-color:#000000;solid-opacity:1;fill:#ffffff;fill-opacity:1;fill-rule:nonzero;stroke:none;stroke-width:10;stroke-linecap:butt;stroke-linejoin:bevel;stroke-miterlimit:4;stroke-dasharray:none;stroke-dashoffset:60.95968628;stroke-opacity:1;color-rendering:auto;image-rendering:auto;shape-rendering:auto;text-rendering:auto;enable-background:accumulate"
       id="rect4168"
       width="400.23416"
       height="400"
       x="189.86858"
       y="322.32013"
       ry="28.756983" />
    <g
       id="g4170"
       style="fill:#0072c6;fill-opacity:1"
       transform="matrix(2.7570816,0,0,2.7570816,-838.62377,-948.57521)">
      <path
         style="fill:#0072c6;fill-opacity:1;fill-rule:evenodd;stroke:none;stroke-width:1px;stroke-linecap:butt;stroke-linejoin:miter;stroke-opacity:1"
         d="m 401.15234,322.4082 c -4.97034,0.39759 -7.49748,1.34756 -11.61328,5.42774 -10.22207,10.13361 -30.79086,36.54194 -46.60351,58.22265 -20.75958,28.46343 -31.17383,51.62696 -31.17383,51.62696 0,0 -2.31604,5.70324 0.82226,7.85937 3.13831,2.15613 7.58204,-0.68945 7.58204,-0.68945 0,0 32.6576,-32.33486 40.45703,-40.69141 7.79943,-8.35654 36.49023,-38.02148 36.49023,-38.02148 l 52.08984,-0.97656 0.55665,57.93945 -15.86719,18.25586 38.94531,0 12.75586,-13.27149 c 2.95124,-3.31564 4.38713,-5.89292 4.21289,-9.38476 l 1.17969,-86.96485 c 0,0 -0.83651,-5.01302 -2.50781,-6.96289 -1.67131,-1.94983 -5.29297,-2.22851 -5.29297,-2.22851 l -82.03321,-0.14063 z m -28.16992,120.92383 c -1.31823,0.0525 -2.62504,0.46376 -3.43359,1.64063 -2.15613,3.1383 0.68945,7.58203 0.68945,7.58203 0,0 26.68457,26.94593 37.76172,37.64843 l 0,-29.10351 c -18.00104,-11.27656 -30.59375,-16.94922 -30.59375,-16.94922 0,0 -2.22677,-0.90586 -4.42383,-0.81836 z m -1.28125,121.18359 -17.89258,21.56446 33.19336,31.90234 c 3.31564,2.95124 5.89488,4.38714 9.38672,4.21289 L 408,622.35352 l 0,-40.35938 -16.01367,0.1543 -20.28516,-17.63282 z"
         transform="matrix(0.31731424,0,0,0.31731424,321.50035,368.85962)"
         id="path4160"
         inkscape:connector-curvature="0" />
      <path
         sodipodi:nodetypes="cssczcsccccccccscc"
         inkscape:connector-curvature="0"
         id="path4164"
         d="m 410.48697,566.85037 c 1.57716,-0.12616 2.37935,-0.42735 3.68535,-1.72205 3.24361,-3.21554 9.77023,-11.59509 14.78781,-18.47469 6.58731,-9.03185 9.89191,-16.38218 9.89191,-16.38218 0,0 0.73509,-1.80949 -0.26074,-2.49366 -0.99583,-0.68417 -2.40625,0.21875 -2.40625,0.21875 0,0 -10.36271,10.2602 -12.83758,12.91185 -2.47487,2.65165 -11.57887,12.065 -11.57887,12.065 l -16.52863,0.30936 -0.17677,-18.38477 5.59527,-6.43719 -6.84251,-5.67738 -10.12344,10.53281 c -0.93647,1.0521 -1.39201,1.87019 -1.33672,2.9782 l -0.37408,27.59494 c 0,0 0.26517,1.59099 0.7955,2.20971 0.53033,0.61871 1.67938,0.7071 1.67938,0.7071 z"
         style="fill:#0072c6;fill-opacity:1;fill-rule:evenodd;stroke:none;stroke-width:1px;stroke-linecap:butt;stroke-linejoin:miter;stroke-opacity:1" />
      <path
         style="fill:#0072c6;fill-opacity:1;fill-rule:evenodd;stroke:none;stroke-width:1px;stroke-linecap:butt;stroke-linejoin:miter;stroke-opacity:1"
         d="m 381.79653,499.85506 c 0.12616,1.57716 0.42735,2.37935 1.72205,3.68535 3.21554,3.24361 11.59509,9.77023 18.47469,14.78781 9.03185,6.58731 16.38218,9.89191 16.38218,9.89191 0,0 1.80949,0.73509 2.49366,-0.26074 0.68417,-0.99583 -0.21875,-2.40625 -0.21875,-2.40625 0,0 -10.2602,-10.36271 -12.91185,-12.83758 -2.65165,-2.47487 -12.065,-11.57887 -12.065,-11.57887 l -0.30936,-16.52863 18.38477,-0.17677 6.43719,5.59527 5.67738,-6.84251 -10.53281,-10.12344 c -1.0521,-0.93647 -1.87019,-1.39201 -2.9782,-1.33672 l -27.59494,-0.37408 c 0,0 -1.59099,0.26517 -2.20971,0.7955 -0.61871,0.53033 -0.7071,1.67938 -0.7071,1.67938 z"
         id="path4166"
         inkscape:connector-curvature="0"
         sodipodi:nodetypes="cssczcsccccccccscc" />
    </g>
    <path
       style="opacity:1;fill:url(#linearGradient4246);fill-opacity:1;stroke:none;stroke-width:16;stroke-linecap:round;stroke-linejoin:round;stroke-miterlimit:4;stroke-dasharray:none;stroke-opacity:1"
       d="m 546.31806,443.25371 c 12.11464,-0.0206 17.63512,4.86161 17.70235,15.97297 l 0,151.91551 c 0,2.70884 -0.51998,5.61013 -1.42379,8.50328 -0.43596,2.53967 -1.44633,4.87609 -2.89501,6.87424 -2.61675,4.8714 -6.21034,9.20833 -10.19158,11.88884 l -88.27854,59.43612 c -8.03893,5.4125 -14.51037,1.96719 -14.51037,-7.72606 l 0,-56.78164 -37.18241,0 c -9.15428,0 -16.52401,-7.37201 -16.52401,-16.5291 l 0,-157.02642 c 0,-9.1571 7.36973,-16.52774 16.52401,-16.52774 z m -16.63249,16.03672 -108.47592,0 c -6.45897,0 -11.65875,5.20141 -11.65875,11.66233 l 0,133.70177 c 0,6.46092 5.19978,11.66233 11.65875,11.66233 l 25.51147,0 0,-83.66957 c 0,-9.69326 6.47144,-21.85521 14.51037,-27.26772 z"
       id="rect4174"
       inkscape:connector-curvature="0"
       sodipodi:nodetypes="ccsccssscssssccsssscssc" />
  </g>
</svg>

<?xml version="1.0" encoding="UTF-8" standalone="no"?>
<!-- Created with Inkscape (http://www.inkscape.org/) -->

<svg
   xmlns:dc="http://purl.org/dc/elements/1.1/"
   xmlns:cc="http://creativecommons.org/ns#"
   xmlns:rdf="http://www.w3.org/1999/02/22-rdf-syntax-ns#"
   xmlns:svg="http://www.w3.org/2000/svg"
   xmlns="http://www.w3.org/2000/svg"
   xmlns:xlink="http://www.w3.org/1999/xlink"
   xmlns:sodipodi="http://sodipodi.sourceforge.net/DTD/sodipodi-0.dtd"
   xmlns:inkscape="http://www.inkscape.org/namespaces/inkscape"
   width="210mm"
   height="297mm"
   viewBox="0 0 744.09448819 1052.3622047"
   id="svg2"
   version="1.1"
   inkscape:version="0.91 r13725"
   sodipodi:docname="exchange-resource.svg"
   inkscape:export-filename="C:\Users\johannes\Documents\Arbeit\RRZE\bi-con\bi-con\scalable\documents\document.png"
   inkscape:export-xdpi="4"
   inkscape:export-ydpi="4">
  <defs
     id="defs4">
    <linearGradient
       id="linearGradient2224">
      <stop
         id="stop2226"
         offset="0"
         style="stop-color:#7c7c7c;stop-opacity:1;" />
      <stop
         id="stop2228"
         offset="1"
         style="stop-color:#b8b8b8;stop-opacity:1;" />
    </linearGradient>
    <linearGradient
       id="linearGradient15218">
      <stop
         id="stop15220"
         offset="0"
         style="stop-color:#eeeeef;stop-opacity:1;" />
      <stop
         id="stop2736"
         offset="0.59928656"
         style="stop-color:#d3d7cf;stop-opacity:1;" />
      <stop
         id="stop2738"
         offset="0.82758623"
         style="stop-color:#ffffff;stop-opacity:1;" />
      <stop
         id="stop15222"
         offset="1"
         style="stop-color:#d3d7cf;stop-opacity:1;" />
    </linearGradient>
    <pattern
       y="0"
       x="0"
       height="6"
       width="6"
       patternUnits="userSpaceOnUse"
       id="EMFhbasepattern" />
    <pattern
       y="0"
       x="0"
       height="6"
       width="6"
       patternUnits="userSpaceOnUse"
       id="EMFhbasepattern-5" />
    <linearGradient
       inkscape:collect="always"
       xlink:href="#linearGradient4240"
       id="linearGradient4246"
       x1="223.80943"
       y1="586.3067"
       x2="436.18082"
       y2="379.83151"
       gradientUnits="userSpaceOnUse"
       gradientTransform="matrix(-0.79356957,0,0,0.79381398,746.93006,156.60851)" />
    <linearGradient
       inkscape:collect="always"
       id="linearGradient4240">
      <stop
         style="stop-color:#5a6578;stop-opacity:1;"
         offset="0"
         id="stop4242" />
      <stop
         style="stop-color:#9397a2;stop-opacity:1"
         offset="1"
         id="stop4244" />
    </linearGradient>
  </defs>
  <sodipodi:namedview
     id="base"
     pagecolor="#ffffff"
     bordercolor="#666666"
     borderopacity="1.0"
     inkscape:pageopacity="0.0"
     inkscape:pageshadow="2"
     inkscape:zoom="1"
     inkscape:cx="328.81128"
     inkscape:cy="428.60198"
     inkscape:document-units="px"
     inkscape:current-layer="layer1"
     showgrid="false"
     showguides="true"
     inkscape:guide-bbox="true"
     inkscape:window-width="1366"
     inkscape:window-height="721"
     inkscape:window-x="-4"
     inkscape:window-y="-4"
     inkscape:window-maximized="1">
    <sodipodi:guide
       position="560,730.00002"
       orientation="0,1"
       id="guide3338" />
    <sodipodi:guide
       position="560,330.00001"
       orientation="0,1"
       id="guide3340" />
    <sodipodi:guide
       position="190,475.00001"
       orientation="1,0"
       id="guide3344" />
    <sodipodi:guide
       position="590,451.00001"
       orientation="1,0"
       id="guide3346" />
    <inkscape:grid
       type="xygrid"
       id="grid3440" />
  </sodipodi:namedview>
  <metadata
     id="metadata7">
    <rdf:RDF>
      <cc:Work
         rdf:about="">
        <dc:format>image/svg+xml</dc:format>
        <dc:type
           rdf:resource="http://purl.org/dc/dcmitype/StillImage" />
        <dc:title></dc:title>
      </cc:Work>
    </rdf:RDF>
  </metadata>
  <g
     inkscape:label="Ebene 1"
     inkscape:groupmode="layer"
     id="layer1">
    <rect
       style="opacity:1;fill:none;fill-opacity:1;stroke:none;stroke-width:23;stroke-linecap:butt;stroke-linejoin:round;stroke-miterlimit:4;stroke-dasharray:none;stroke-opacity:1"
       id="rect4160"
       width="400"
       height="400"
       x="190"
       y="322.36221" />
    <rect
       style="color:#000000;clip-rule:nonzero;display:inline;overflow:visible;visibility:visible;opacity:0.65100002;isolation:auto;mix-blend-mode:normal;color-interpolation:sRGB;color-interpolation-filters:linearRGB;solid-color:#000000;solid-opacity:1;fill:#ffffff;fill-opacity:1;fill-rule:nonzero;stroke:none;stroke-width:10;stroke-linecap:butt;stroke-linejoin:bevel;stroke-miterlimit:4;stroke-dasharray:none;stroke-dashoffset:60.95968628;stroke-opacity:1;color-rendering:auto;image-rendering:auto;shape-rendering:auto;text-rendering:auto;enable-background:accumulate"
       id="rect4168"
       width="400.23416"
       height="400"
       x="189.86858"
       y="322.32013"
       ry="28.756983" />
    <g
       id="g4170"
       style="fill:#0072c6;fill-opacity:1"
       transform="matrix(3.1514501,0,0,3.1514501,-1013.1923,-1162.4427)">
      <path
         style="fill:#0072c6;fill-opacity:1;fill-rule:evenodd;stroke:none;stroke-width:1px;stroke-linecap:butt;stroke-linejoin:miter;stroke-opacity:1"
         d="M 401.15234 322.4082 C 396.182 322.80579 393.65486 323.75576 389.53906 327.83594 C 379.31699 337.96955 358.7482 364.37788 342.93555 386.05859 C 322.17597 414.52202 311.76172 437.68555 311.76172 437.68555 C 311.76172 437.68555 309.44568 443.38879 312.58398 445.54492 C 315.72229 447.70105 320.16602 444.85547 320.16602 444.85547 C 320.16602 444.85547 352.82362 412.52061 360.62305 404.16406 C 368.42248 395.80752 397.11328 366.14258 397.11328 366.14258 L 449.20312 365.16602 L 449.75977 423.10547 L 433.89258 441.36133 L 472.83789 441.36133 L 485.59375 428.08984 C 488.54499 424.7742 489.98088 422.19692 489.80664 418.70508 L 490.98633 331.74023 C 490.98633 331.74023 490.14982 326.72721 488.47852 324.77734 C 486.80721 322.82751 483.18555 322.54883 483.18555 322.54883 L 401.15234 322.4082 z M 372.98242 443.33203 C 371.66419 443.38453 370.35738 443.79579 369.54883 444.97266 C 367.3927 448.11096 370.23828 452.55469 370.23828 452.55469 C 370.23828 452.55469 396.92285 479.50062 408 490.20312 L 408 461.09961 C 389.99896 449.82305 377.40625 444.15039 377.40625 444.15039 C 377.40625 444.15039 375.17948 443.24453 372.98242 443.33203 z M 371.70117 564.51562 L 353.80859 586.08008 L 387.00195 617.98242 C 390.31759 620.93366 392.89683 622.36956 396.38867 622.19531 L 408 622.35352 L 408 581.99414 L 391.98633 582.14844 L 371.70117 564.51562 z "
         transform="matrix(0.31731424,0,0,0.31731424,321.50035,368.85962)"
         id="path4160" />
      <path
         sodipodi:nodetypes="cssczcsccccccccscc"
         inkscape:connector-curvature="0"
         id="path4164"
         d="m 410.48697,566.85037 c 1.57716,-0.12616 2.37935,-0.42735 3.68535,-1.72205 3.24361,-3.21554 9.77023,-11.59509 14.78781,-18.47469 6.58731,-9.03185 9.89191,-16.38218 9.89191,-16.38218 0,0 0.73509,-1.80949 -0.26074,-2.49366 -0.99583,-0.68417 -2.40625,0.21875 -2.40625,0.21875 0,0 -10.36271,10.2602 -12.83758,12.91185 -2.47487,2.65165 -11.57887,12.065 -11.57887,12.065 l -16.52863,0.30936 -0.17677,-18.38477 5.59527,-6.43719 -6.84251,-5.67738 -10.12344,10.53281 c -0.93647,1.0521 -1.39201,1.87019 -1.33672,2.9782 l -0.37408,27.59494 c 0,0 0.26517,1.59099 0.7955,2.20971 0.53033,0.61871 1.67938,0.7071 1.67938,0.7071 z"
         style="fill:#0072c6;fill-opacity:1;fill-rule:evenodd;stroke:none;stroke-width:1px;stroke-linecap:butt;stroke-linejoin:miter;stroke-opacity:1" />
      <path
         style="fill:#0072c6;fill-opacity:1;fill-rule:evenodd;stroke:none;stroke-width:1px;stroke-linecap:butt;stroke-linejoin:miter;stroke-opacity:1"
         d="m 381.79653,499.85506 c 0.12616,1.57716 0.42735,2.37935 1.72205,3.68535 3.21554,3.24361 11.59509,9.77023 18.47469,14.78781 9.03185,6.58731 16.38218,9.89191 16.38218,9.89191 0,0 1.80949,0.73509 2.49366,-0.26074 0.68417,-0.99583 -0.21875,-2.40625 -0.21875,-2.40625 0,0 -10.2602,-10.36271 -12.91185,-12.83758 -2.65165,-2.47487 -12.065,-11.57887 -12.065,-11.57887 l -0.30936,-16.52863 18.38477,-0.17677 6.43719,5.59527 5.67738,-6.84251 -10.53281,-10.12344 c -1.0521,-0.93647 -1.87019,-1.39201 -2.9782,-1.33672 l -27.59494,-0.37408 c 0,0 -1.59099,0.26517 -2.20971,0.7955 -0.61871,0.53033 -0.7071,1.67938 -0.7071,1.67938 z"
         id="path4166"
         inkscape:connector-curvature="0"
         sodipodi:nodetypes="cssczcsccccccccscc" />
    </g>
    <path
       style="opacity:1;fill:url(#linearGradient4246);fill-opacity:1;stroke:none;stroke-width:16;stroke-linecap:round;stroke-linejoin:round;stroke-miterlimit:4;stroke-dasharray:none;stroke-opacity:1"
       d="m 569.84938,428.47119 c 13.8475,-0.0236 20.15762,5.55701 20.23447,18.25772 l 0,173.64526 c 0,3.09631 -0.59436,6.41259 -1.62745,9.71957 -0.49832,2.90294 -1.65321,5.57356 -3.30911,7.85752 -2.99104,5.5682 -7.09865,10.52548 -11.64936,13.58941 l -100.90577,67.93776 c -9.1888,6.1867 -16.58591,2.24858 -16.58591,-8.83118 l 0,-64.9036 -42.50092,0 c -10.46369,0 -18.88758,-8.42648 -18.88758,-18.89339 l 0,-179.48723 c 0,-10.46691 8.42389,-18.89184 18.88758,-18.89184 z m -19.01157,18.33059 -123.99215,0 c -7.38284,0 -13.32639,5.94541 -13.32639,13.33049 l 0,152.82625 c 0,7.38509 5.94355,13.3305 13.32639,13.3305 l 29.16059,0 0,-95.63753 c 0,-11.07977 7.39711,-24.98135 16.58591,-31.16806 z"
       id="rect4174"
       inkscape:connector-curvature="0"
       sodipodi:nodetypes="ccsccssscssssccsssscssc" />
  </g>
</svg>
